static/images/logos/atlas.svg

<svg width="88" height="22" viewBox="0 0 88 22" fill="none" xmlns="http://www.w3.org/2000/svg">
<g clip-path="url(#clip0_1237_37399)">
<path d="M42.5023 17.8143H35.6853L34.3397 21.7502H31.2651L37.411 3.83887H40.7733L46.9192 21.7502H43.8479L42.5023 17.8143ZM41.494 14.8615L39.0938 7.87552L36.6936 14.8615H41.494Z" fill="#231F20"/>
<path d="M55.1545 11.9083H52.4666V21.7463H49.5144V11.9083H47.6167V8.98325H49.5144V5.2002H52.4666V8.98325H55.1545V11.9083Z" fill="#231F20"/>
<path d="M60.0045 21.7463H57.0522V5.2002H60.0045V21.7463Z" fill="#231F20"/>
<path d="M68.0708 8.73047C70.1603 8.73047 71.7934 9.89075 72.415 11.3533L72.5836 8.98059H75.3937V21.7471H72.5836L72.415 19.3744C71.7901 20.8369 70.1569 21.9972 68.0708 21.9972C64.5896 21.9972 62.0439 19.0201 62.0439 15.3621C62.0439 11.7041 64.5896 8.73047 68.0708 8.73047ZM68.5767 19.0757C70.6396 19.0757 72.1042 17.3839 72.1042 15.3691C72.1042 13.3542 70.6396 11.6624 68.5767 11.6624C66.4873 11.6624 64.9995 13.3542 64.9995 15.3691C64.9995 17.3839 66.4873 19.0757 68.5767 19.0757Z" fill="#231F20"/>
<path d="M80.5581 17.8871C80.7267 18.7938 81.6623 19.4017 83.1038 19.4017C84.1121 19.4017 85.0246 19.023 85.0246 18.2414C85.0246 17.234 84.0658 17.029 81.616 16.1988C79.5531 15.5422 77.9893 14.4827 77.9893 12.4157C77.9893 10.1195 80.1746 8.7334 82.4789 8.7334C85.4808 8.7334 87.2793 10.4981 87.352 12.645H84.3997C84.327 11.7105 83.3682 11.3075 82.5748 11.3075C81.8309 11.3075 80.9416 11.6862 80.9416 12.4157C80.9416 13.2217 81.8045 13.3988 84.3733 14.3333C87.0611 15.2921 88 16.6782 88 18.3178C88 20.6905 85.7916 22.0002 83.031 22.0002C79.9597 22.0002 77.7744 20.6384 77.6058 17.8871H80.5581Z" fill="#231F20"/>
<path d="M13.8027 0.00694776L13.7994 0L0 14.5L4.76399 19.5058C4.76399 19.5058 6.03681 20.8537 7.51791 20.8259L12.272 20.5793L13.7994 21.75L15.3268 20.5793L20.0808 20.8259C21.5619 20.8572 22.8347 19.5058 22.8347 19.5058L27.5888 14.5104L27.602 14.4965L13.8027 0.00694776ZM13.7994 19.954C10.5198 19.954 7.86505 17.161 7.86505 13.7184C7.86505 10.2757 10.5231 7.48274 13.7994 7.48274C17.0756 7.48274 19.7337 10.2757 19.7337 13.7184C19.7337 17.161 17.0756 19.954 13.7994 19.954Z" fill="url(#paint0_linear_1237_37399)"/>
<path d="M18.5633 19.5059L13.7993 14.5L9.032 19.5059C7.85505 20.7426 5.94417 20.7426 4.76392 19.5059C6.12931 20.9406 7.98399 21.7465 9.91471 21.7465H13.796H17.6773C19.608 21.7465 21.4627 20.9406 22.8281 19.5059C21.6511 20.7426 19.7402 20.7426 18.5633 19.5059Z" fill="#36B7FF"/>
</g>
<defs>
<linearGradient id="paint0_linear_1237_37399" x1="13.7981" y1="21.6168" x2="13.7981" y2="-0.357844" gradientUnits="userSpaceOnUse">
<stop stop-color="#2942EE"/>
<stop offset="1" stop-color="#928BFF"/>
</linearGradient>
<clipPath id="clip0_1237_37399">
<rect width="88" height="22" fill="white"/>
</clipPath>
</defs>
</svg>

<svg xmlns="http://www.w3.org/2000/svg" width="88" height="22" fill="none" viewBox="0 0 88 22"><g clip-path="url(#a)"><path fill="#231f20" d="M42.502 17.814h-6.817L34.34 21.75h-3.075L37.411 3.84h3.362L46.92 21.75h-3.071zm-1.008-2.953-2.4-6.985-2.4 6.985zM55.155 11.908h-2.688v9.838h-2.953v-9.838h-1.897V8.983h1.897V5.2h2.953v3.783h2.688zM60.005 21.746h-2.953V5.2h2.953zM68.07 8.73c2.09 0 3.723 1.16 4.345 2.623l.169-2.372h2.81v12.766h-2.81l-.169-2.373c-.625 1.463-2.258 2.623-4.344 2.623-3.481 0-6.027-2.977-6.027-6.635S64.59 8.73 68.07 8.73m.507 10.346c2.063 0 3.527-1.692 3.527-3.707s-1.464-3.707-3.527-3.707c-2.09 0-3.578 1.692-3.578 3.707s1.488 3.707 3.578 3.707M80.558 17.887c.169.907 1.104 1.515 2.546 1.515 1.008 0 1.92-.379 1.92-1.16 0-1.008-.958-1.213-3.408-2.043-2.063-.657-3.627-1.716-3.627-3.783 0-2.296 2.186-3.683 4.49-3.683 3.002 0 4.8 1.765 4.873 3.912H84.4c-.073-.934-1.032-1.338-1.825-1.338-.744 0-1.633.38-1.633 1.109 0 .806.863.983 3.431 1.917 2.688.96 3.627 2.345 3.627 3.985C88 20.69 85.792 22 83.031 22c-3.071 0-5.257-1.362-5.425-4.113z"/><path fill="url(#b)" d="M13.803.007 13.799 0 0 14.5l4.764 5.006s1.273 1.348 2.754 1.32l4.754-.247 1.527 1.171 1.528-1.17 4.754.246c1.48.031 2.754-1.32 2.754-1.32l4.754-4.996.013-.014zm-.004 19.947c-3.28 0-5.934-2.793-5.934-6.236s2.658-6.235 5.934-6.235 5.935 2.793 5.935 6.235-2.658 6.236-5.935 6.236"/><path fill="#36b7ff" d="M18.563 19.506 13.8 14.5l-4.767 5.006a2.92 2.92 0 0 1-4.268 0c1.365 1.435 3.22 2.24 5.15 2.24h7.763c1.931 0 3.786-.805 5.151-2.24a2.915 2.915 0 0 1-4.265 0"/></g><defs><linearGradient id="b" x1="13.798" x2="13.798" y1="21.617" y2="-.358" gradientUnits="userSpaceOnUse"><stop stop-color="#2942ee"/><stop offset="1" stop-color="#928bff"/></linearGradient><clipPath id="a"><path fill="#fff" d="M0 0h88v22H0z"/></clipPath></defs></svg>
